svgs/thin/user-tag.svg

<svg xmlns="http://www.w3.org/2000/svg" viewBox="0 0 640 512"><!--! Font Awesome Pro 6.3.0 by @fontawesome - https://fontawesome.com License - https://fontawesome.com/license (Commercial License) Copyright 2023 Fonticons, Inc. --><path d="M224 256c70.7 0 128-57.31 128-128S294.7 0 224 0C153.3 0 96 57.31 96 128S153.3 256 224 256zM224 16c61.76 0 112 50.24 112 112S285.8 240 224 240S112 189.8 112 128S162.2 16 224 16zM416 496H41.44C27.41 496 16 485.2 16 472C16 388.2 87.41 320 175.2 320h97.69c26.31 0 52.44 6.281 75.5 18.16c3.844 1.938 8.719 .4375 10.78-3.469c2-3.938 .4687-8.75-3.469-10.78C330.3 310.9 301.7 304 272.8 304H175.2C78.56 304 0 379.4 0 472C0 494.1 18.59 512 41.44 512H416c4.406 0 8-3.594 8-8S420.4 496 416 496zM630.6 364.8L540.3 274.8C528.3 262.8 512 256 495 256h-79.23c-17.73 0-31.99 14.25-31.99 32l.0147 79.2c0 17 6.659 33.15 18.65 45.15l90.31 90.27C499 508.9 507.3 512 515.4 512c8.182 0 16.34-3.125 22.58-9.375l92.49-92.5C643.1 397.6 643.1 377.3 630.6 364.8zM619.2 398.8l-92.41 92.5C523.8 494.3 519.8 496 515.5 496c-4.262 0-8.27-1.664-11.29-4.691l-90.28-90.24C404.9 392.1 400 380.1 400 367.3V288c0-8.973 7.016-16 15.97-16h79.18c12.8 0 24.83 4.992 33.91 14.07l90.28 90.11c3.021 3.023 4.68 7.035 4.67 11.29C623.1 391.7 622.3 395.7 619.2 398.8zM448 304c-8.834 0-16 7.166-16 16c0 8.916 7.111 15.94 15.95 15.94c8.916 0 16-7.168 16-16C463.9 311.1 456.9 304 448 304z"/></svg>

<svg xmlns="http://www.w3.org/2000/svg" viewBox="0 0 640 512"><!-- Font Awesome Pro 6.0.0-alpha2 by @fontawesome - https://fontawesome.com License - https://fontawesome.com/license (Commercial License) --><path d="M224 256C294.695 256 352 198.691 352 128S294.695 0 224 0C153.312 0 96 57.309 96 128S153.312 256 224 256ZM224 16C285.758 16 336 66.242 336 128S285.758 240 224 240S112 189.758 112 128S162.242 16 224 16ZM416 496H41.438C27.406 496 16 485.219 16 472C16 388.188 87.406 320 175.156 320H272.844C299.156 320 325.281 326.281 348.344 338.156C352.188 340.094 357.062 338.594 359.125 334.688C361.125 330.75 359.594 325.938 355.656 323.906C330.344 310.875 301.688 304 272.844 304H175.156C78.562 304 0 379.375 0 472C0 494.062 18.594 512 41.438 512H416C420.406 512 424 508.406 424 504S420.406 496 416 496ZM630.648 364.875L540.357 274.75C528.367 262.75 512.133 256 495.148 256H415.971C398.236 256 384 270.25 384 288V367.25C384 384.25 390.619 400.375 402.607 412.375L492.9 502.625C499.145 508.875 507.324 512 515.504 512C523.686 512 531.865 508.875 538.109 502.625L630.523 410.125C643.137 397.625 643.137 377.375 630.648 364.875ZM619.205 398.816L526.791 491.316C523.773 494.336 519.766 496 515.506 496C511.244 496 507.236 494.336 504.211 491.309L413.928 401.066C404.945 392.076 400 380.066 400 367.25V288C400 279.027 407.016 272 415.971 272H495.148C507.945 272 519.98 276.992 529.055 286.074L619.33 376.184C622.352 379.207 624.01 383.219 624 387.479C623.988 391.736 622.305 395.742 619.205 398.816ZM448 304C439.166 304 432 311.166 432 320C432 328.916 439.166 336 448 336C456.916 336 464 328.832 464 320C464 311.166 456.916 304 448 304Z"/></svg>
